dist/svg/park-fill.svg

<svg xmlns="http://www.w3.org/2000/svg" viewBox="0 0 24 24"><path d="M17.263 4.299a1 1 0 0 0-.295.194c-.13.13-.236.446-1.912 5.712a634 634 0 0 0-1.799 5.699c-.061.316.201.722.524.811.102.029.664.045 1.569.045h1.41v2.48h-7v-1h.197c.347 0 .584-.15.727-.46a.59.59 0 0 0 0-.56c-.143-.31-.38-.46-.727-.46H9.76v-1h.15a.84.84 0 0 0 .615-.236.739.739 0 0 0-.348-1.246c-.205-.047-6.149-.047-6.354 0a.739.739 0 0 0-.348 1.246.84.84 0 0 0 .615.236h.15v.991l-.255.016c-.324.021-.509.138-.646.411-.118.235-.123.385-.023.602.143.31.38.46.727.46h.197v1l-.63.001c-.861.001-1.03.049-1.237.354-.268.393-.049.993.408 1.12.226.063 18.212.063 18.438 0a.84.84 0 0 0 .306-.191.739.739 0 0 0-.348-1.246c-.086-.02-.782-.037-1.547-.037l-1.39-.001v-2.48h1.41c.905 0 1.467-.016 1.569-.045.323-.089.585-.495.524-.811-.013-.068-.822-2.631-1.798-5.696-1.888-5.93-1.811-5.715-2.105-5.867a.78.78 0 0 0-.577-.042m-7.646.984c-.585.069-1.098.328-1.552.781a2.7 2.7 0 0 0-.693 1.116c-.091.277-.105.387-.105.82s.014.543.105.82c.146.44.357.781.692 1.116s.676.546 1.116.692c.277.091.387.105.82.105s.543-.014.82-.105c.44-.146.781-.357 1.116-.692s.546-.676.692-1.116c.091-.277.105-.387.105-.82s-.014-.543-.105-.82c-.425-1.294-1.642-2.06-3.011-1.897M8.24 16.26v.5H5.76v-1h2.48zm0 2.48v.5H5.76v-1h2.48z"/></svg>

<svg fill="none" xmlns="http://www.w3.org/2000/svg" viewBox="0 0 24 24"><path d="M17.263 4.299 C 17.177 4.330,17.044 4.417,16.968 4.493 C 16.838 4.623,16.732 4.939,15.056 10.205 C 14.080 13.271,13.270 15.836,13.257 15.904 C 13.196 16.220,13.458 16.626,13.781 16.715 C 13.883 16.744,14.445 16.760,15.350 16.760 L 16.760 16.760 16.760 18.000 L 16.760 19.240 13.260 19.240 L 9.760 19.240 9.760 18.740 L 9.760 18.240 9.957 18.240 C 10.304 18.240,10.541 18.090,10.684 17.780 C 10.778 17.578,10.778 17.422,10.684 17.220 C 10.541 16.910,10.304 16.760,9.957 16.760 L 9.760 16.760 9.760 16.260 L 9.760 15.760 9.910 15.760 C 10.160 15.759,10.371 15.679,10.525 15.524 C 10.938 15.111,10.742 14.409,10.177 14.278 C 9.972 14.231,4.028 14.231,3.823 14.278 C 3.258 14.409,3.062 15.111,3.475 15.524 C 3.629 15.679,3.840 15.759,4.090 15.760 L 4.240 15.760 4.240 16.255 L 4.240 16.751 3.985 16.767 C 3.661 16.788,3.476 16.905,3.339 17.178 C 3.221 17.413,3.216 17.563,3.316 17.780 C 3.459 18.090,3.696 18.240,4.043 18.240 L 4.240 18.240 4.240 18.740 L 4.240 19.240 3.610 19.241 C 2.749 19.242,2.580 19.290,2.373 19.595 C 2.105 19.988,2.324 20.588,2.781 20.715 C 3.007 20.778,20.993 20.778,21.219 20.715 C 21.307 20.691,21.444 20.605,21.525 20.524 C 21.938 20.111,21.742 19.409,21.177 19.278 C 21.091 19.258,20.395 19.241,19.630 19.241 L 18.240 19.240 18.240 18.000 L 18.240 16.760 19.650 16.760 C 20.555 16.760,21.117 16.744,21.219 16.715 C 21.542 16.626,21.804 16.220,21.743 15.904 C 21.730 15.836,20.921 13.273,19.945 10.208 C 18.057 4.278,18.134 4.493,17.840 4.341 C 17.673 4.255,17.433 4.237,17.263 4.299 M9.617 5.283 C 9.032 5.352,8.519 5.611,8.065 6.064 C 7.729 6.399,7.518 6.739,7.372 7.180 C 7.281 7.457,7.267 7.567,7.267 8.000 C 7.267 8.433,7.281 8.543,7.372 8.820 C 7.518 9.260,7.729 9.601,8.064 9.936 C 8.399 10.271,8.740 10.482,9.180 10.628 C 9.457 10.719,9.567 10.733,10.000 10.733 C 10.433 10.733,10.543 10.719,10.820 10.628 C 11.260 10.482,11.601 10.271,11.936 9.936 C 12.271 9.601,12.482 9.260,12.628 8.820 C 12.719 8.543,12.733 8.433,12.733 8.000 C 12.733 7.568,12.719 7.457,12.628 7.180 C 12.203 5.886,10.986 5.120,9.617 5.283 M8.240 16.260 L 8.240 16.760 7.000 16.760 L 5.760 16.760 5.760 16.260 L 5.760 15.760 7.000 15.760 L 8.240 15.760 8.240 16.260 M8.240 18.740 L 8.240 19.240 7.000 19.240 L 5.760 19.240 5.760 18.740 L 5.760 18.240 7.000 18.240 L 8.240 18.240 8.240 18.740 " stroke="none" fill-rule="evenodd"/></svg>
